X:3
T:Bielbie's Hornpipe
C:(Curlew or Green Bay Hornpipe)
Q:1/4=140
I:abc2nwc
M:4/4
L:1/8
K:G
D2|:G3/2A/2 B3/2c/2 d3/2g/2 f3/2a/2|g2B2d2-d3/2B/2|\
c3/2e/2 A3/2B/2 c2c2|B3/2d/2 G3/2A/2 B3/2c/2 B3/2A/2|
G3/2A/2 B3/2c/2 d3/2g/2 f3/2a/2|g2B2d2-d3/2B/2|\
c3/2e/2 A3/2B/2 c3/2B/2 c3/2A/2|\
[1G2B2G2D2:|[2G2B2G3/2A/2 B3/2c/2
|:d2b2c2a2|B2g3/2f/2 g3/2d/2 B3/2G/2|F3/2G/2 A3/2B/2 c3/2A/2 F3/2D/2|\
G3/2F/2 G3/2A/2 B3/2A/2 B3/2c/2|
d2b2c2a2|B2g3/2f/2 g3/2d/2 B3/2G/2|F3/2G/2 A3/2B/2 c3/2A/2 F3/2A/2|\
[1A3/2G/2 G3/2F/2 G3/2A/2 B3/2c/2:|\
[2A3/2G/2 G3/2F/2 G4|]


